svg/24/logo-adobe-photoshop.svg

<svg width="24" height="24" viewBox="0 0 24 24" fill="currentColor" xmlns="http://www.w3.org/2000/svg"><path d="M8.59977 9.10792V11.6925L8.62282 11.6942C8.72177 11.7013 8.81408 11.7079 8.89977 11.7079H9.30747C9.60747 11.7079 9.90747 11.6618 10.1921 11.5695C10.4382 11.5002 10.6536 11.3541 10.8229 11.1618C10.9844 10.9695 11.0613 10.7079 11.0613 10.3695C11.069 10.131 11.0075 9.89253 10.8844 9.68484C10.7536 9.48484 10.569 9.33099 10.3459 9.24638C10.0613 9.13099 9.75362 9.08484 9.43824 9.09253C9.23824 9.09253 9.06131 9.09253 8.91516 9.10023C8.76131 9.09253 8.65362 9.10023 8.59977 9.10792Z"/><path fill-rule="evenodd" clip-rule="evenodd" d="M6.03876 3H17.9618C19.7695 3 21.2311 4.46154 21.2311 6.26923V17.7308C21.2311 19.5385 19.7695 21 17.9618 21H6.03876C4.23107 21 2.76953 19.5385 2.76953 17.7308V6.26923C2.76953 4.46154 4.23107 3 6.03876 3ZM6.92285 15.6233V7.70792C6.92285 7.65407 6.94593 7.6233 6.99977 7.6233C7.13053 7.6233 7.25363 7.6233 7.43054 7.61561C7.5256 7.61165 7.6227 7.60973 7.72289 7.60775C7.81724 7.60588 7.91445 7.60396 8.01516 7.60023C8.12257 7.59625 8.2341 7.59433 8.34975 7.59233C8.45769 7.59048 8.56928 7.58855 8.68439 7.58484C8.92285 7.57715 9.15362 7.57715 9.38439 7.57715C10.0152 7.57715 10.5382 7.65407 10.969 7.81561C11.3536 7.94638 11.7075 8.16176 11.9998 8.44638C12.2459 8.69253 12.4382 8.99253 12.5613 9.3233C12.6767 9.64638 12.7382 9.97715 12.7382 10.3233C12.7382 10.9848 12.5844 11.531 12.2767 11.9618C11.969 12.3925 11.5382 12.7156 11.0382 12.9002C10.5152 13.0925 9.93824 13.1618 9.30747 13.1618C9.12285 13.1618 8.99977 13.1618 8.92285 13.1541C8.84593 13.1464 8.73824 13.1464 8.59208 13.1464V15.6156C8.59977 15.6695 8.56131 15.7156 8.50747 15.7233H7.01516C6.95362 15.7233 6.92285 15.6925 6.92285 15.6233ZM16.8 10.9618C17.0615 11.0156 17.3077 11.1002 17.5384 11.2233C17.5692 11.2387 17.6077 11.2387 17.6769 11.2233C17.7 11.2079 17.7154 11.1772 17.7154 11.1464V9.89256C17.7154 9.86179 17.7077 9.83102 17.7 9.80025C17.6846 9.76948 17.6538 9.73871 17.6231 9.73102C17.4154 9.6464 17.1923 9.58486 16.9615 9.55409C16.6461 9.50794 16.3231 9.48486 16.0077 9.48486C15.4615 9.48486 15.0077 9.56948 14.6461 9.75409C14.3154 9.90794 14.0308 10.1541 13.8384 10.4618C13.6692 10.7464 13.5769 11.0618 13.5769 11.3926C13.5692 11.6618 13.6308 11.931 13.7538 12.1772C13.9 12.4387 14.1 12.6618 14.3384 12.831C14.6769 13.0618 15.0385 13.2464 15.4308 13.3849C15.8077 13.531 16.0615 13.6464 16.1846 13.7464C16.3077 13.8464 16.3692 13.9464 16.3692 14.0541C16.3692 14.1926 16.2846 14.3233 16.1615 14.3772C16.0231 14.4464 15.8154 14.4849 15.5231 14.4849C15.2154 14.4849 14.9077 14.4464 14.6154 14.3695C14.2769 14.2926 13.9615 14.1695 13.6615 13.9926C13.6385 13.9772 13.6154 13.9695 13.5923 13.9849C13.5692 14.0002 13.5615 14.031 13.5615 14.0541V15.3926C13.5538 15.4541 13.5923 15.5079 13.6461 15.5387C13.8923 15.6541 14.1615 15.7387 14.4308 15.7849C14.7769 15.8541 15.1231 15.8849 15.4769 15.8849C16.0308 15.8849 16.4923 15.8002 16.8692 15.6387C17.2154 15.5002 17.5154 15.2618 17.7308 14.9541C17.9308 14.6541 18.0384 14.2926 18.0308 13.931C18.0384 13.6541 17.9769 13.3849 17.8538 13.1387C17.7077 12.8772 17.5 12.6618 17.2461 12.5002C16.8769 12.2695 16.4769 12.0772 16.0615 11.9387C15.8769 11.8618 15.6923 11.7772 15.5154 11.6849C15.4154 11.631 15.3231 11.5618 15.2538 11.4772C15.2077 11.4156 15.1769 11.3464 15.1769 11.2772C15.1769 11.2079 15.2 11.131 15.2385 11.0695C15.2923 10.9926 15.3769 10.9387 15.4769 10.9156C15.6231 10.8772 15.7846 10.8541 15.9384 10.8618C16.2308 10.8618 16.5154 10.9002 16.8 10.9618Z"/></svg>

<svg xmlns="http://www.w3.org/2000/svg" width="24" height="24" fill="currentColor" viewBox="0 0 24 24">
  <path d="M8.6 9.108v2.585l.023.001c.099.007.191.014.277.014h.407c.3 0 .6-.046.885-.139.246-.069.462-.215.63-.407.162-.193.24-.454.24-.793a1.266 1.266 0 0 0-.178-.684c-.13-.2-.315-.354-.538-.439a2.257 2.257 0 0 0-.908-.153c-.2 0-.377 0-.523.007a1.76 1.76 0 0 0-.315.008Z"/>
  <path fill-rule="evenodd" d="M6.039 3h11.923a3.267 3.267 0 0 1 3.27 3.27v11.46a3.267 3.267 0 0 1-3.27 3.27H6.039a3.266 3.266 0 0 1-3.27-3.27V6.27A3.266 3.266 0 0 1 6.04 3Zm.884 12.623V7.708c0-.054.023-.085.077-.085.13 0 .254 0 .43-.007.096-.004.193-.006.293-.008.094-.002.191-.004.292-.008.108-.004.22-.006.335-.008.108-.002.22-.003.334-.007.239-.008.47-.008.7-.008.631 0 1.154.077 1.585.239.385.13.739.346 1.03.63.247.247.44.547.562.877.116.323.177.654.177 1 0 .662-.154 1.208-.461 1.639-.308.43-.739.754-1.239.938-.523.192-1.1.262-1.73.262-.185 0-.308 0-.385-.008-.077-.008-.185-.008-.33-.008v2.47a.097.097 0 0 1-.086.107H7.015c-.061 0-.092-.03-.092-.1Zm9.877-4.661c.261.054.508.138.738.261.031.016.07.016.139 0a.095.095 0 0 0 .038-.077V9.893A.376.376 0 0 0 17.7 9.8a.137.137 0 0 0-.077-.069 2.707 2.707 0 0 0-.662-.177 6.631 6.631 0 0 0-.953-.07c-.546 0-1 .085-1.362.27-.33.154-.615.4-.808.708-.169.284-.261.6-.261.93-.008.27.054.539.177.785.146.262.346.485.584.654.339.23.7.415 1.093.554.377.146.63.261.754.361.123.1.184.2.184.308 0 .139-.084.27-.207.323-.139.07-.347.108-.639.108-.308 0-.615-.039-.908-.115a3.293 3.293 0 0 1-.954-.377c-.022-.016-.046-.024-.069-.008-.023.015-.03.046-.03.07v1.338c-.008.061.03.115.084.146.246.115.515.2.785.246.346.07.692.1 1.046.1.554 0 1.015-.085 1.392-.246.346-.139.646-.377.862-.685.2-.3.307-.661.3-1.023a1.662 1.662 0 0 0-.177-.792 1.79 1.79 0 0 0-.608-.639 5.63 5.63 0 0 0-1.184-.561 7.027 7.027 0 0 1-.547-.254.87.87 0 0 1-.261-.208.343.343 0 0 1-.077-.2c0-.07.023-.146.062-.207a.395.395 0 0 1 .238-.154 1.55 1.55 0 0 1 .461-.054c.293 0 .577.038.862.1Z" clip-rule="evenodd"/>
</svg>
